X:534
T:Priest and His Boots, The
R:jig
S:Michael Tubridy on Youtube
H:See also #518, #533 in G, and #57 in D
D:Se\'an Clohessy, Sean McComiskey, Kieran Jordan: Cover the Buckle
Z:id:hn-jig-534
M:6/8
K:D
a2f gfe | fed B2A | a2f gfe | ~f3 dfg |
a2f gfe | fed B2A | d2f a2f |1 gfe dfg :|2 gfe dBd ||
|: e3 e2d | efe dBA | Bdd dBA | efe dBA |
e3 e2d | efe dBA | d2f a2f |1 gfe dBd :|2 gfe dfg ||
P:variations
|: a2f g2e | f2d ecA | agf g2e | fdd dfg |
agf g2e | f2d ecA | d2f a2f |1 gfe dfg :|2 gfe dBd ||
|: ~e3 e2d | efe dBA | Bdd dcd | f2e dBd |
~e3 e2d | efe dBA | d2f a2f |1 gfe dBd :|2 gfe dfg ||

